src/icons/kv.svg

<svg width="64" height="64" viewBox="0 0 64 64" fill="none" xmlns="http://www.w3.org/2000/svg"><path d="M22 44.95H15V40.95H22V44.95Z" fill="#F6821F"/><path d="M15 36.95H22V32.95H15V36.95Z" fill="#F6821F"/><path d="M22 28.95H15V24.95H22V28.95Z" fill="#F6821F"/><path d="M26 44.95L49 44.95V40.95L26 40.95V44.95Z" fill="#F6821F"/><path d="M49 36.95L26 36.95V32.95L49 32.95V36.95Z" fill="#F6821F"/><path d="M26 28.95L49 28.95V24.95L26 24.95V28.95Z" fill="#F6821F"/><path fill-rule="evenodd" clip-rule="evenodd" d="M6 12L8 10H27L28.6751 10.9072L32.0832 16.1316H56L58 18.1316V52L56 54H8L6 52V12ZM10 14V50H54V20.1316H31L29.3249 19.2243L25.9168 14H10Z" fill="#F6821F"/></svg>

<svg xmlns="http://www.w3.org/2000/svg" width="64" height="64" fill="none" viewBox="0 0 64 64"><path fill="#F6821F" d="M22 44.95h-7v-4h7zm-7-8h7v-4h-7zm7-8h-7v-4h7zm4 16h23v-4H26zm23-8H26v-4h23zm-23-8h23v-4H26z"/><path fill="#F6821F" fill-rule="evenodd" d="m6 12 2-2h19l1.675.907 3.408 5.225H56l2 2V52l-2 2H8l-2-2zm4 2v36h44V20.132H31l-1.675-.908L25.917 14z" clip-rule="evenodd"/></svg>
